X: 1
T: Glendaruel Highlanders
C: P.M. A.Fettes ca.1910
S: Kevin Briggs, via EF
N: recorded in 1911 by Pipe Major David Laing of H.M. Scots Guards, on Lxo-1269 A22145
%%date 1911
M: 6/8
K: Amix
ec \
| "A"A>AA ABc | "A"ece "D"f2e | "A"cBA "D"faf | "E7"e3 efa \
| "A"A>AA ABc | "A"ece "D"f2e | "F#m"fac "E7"edB | "A"A3 -"(E7)"A :|
ed \
| "A"c2A "E7"ceB | "A"c2A Ace | "D"f2e faf | "E7"e3 efa \
| "A"c2A "E7"ceB | "A"c2A Ace | "Bm"fec "E7"edB | "A"A3 -"(E7)"A |]
ed \
| "A"c2A "E7"ceB | "A"c2A Ace | "D"f2e faf | "Em"e3 efg \
| "A"acc cde | "Bm"fBB Bce | "F#m"fac "E7"edB | "A"A3 -A |]
